svg/pill_1_negative.svg

<svg width="48" height="48" viewBox="0 0 48 48" fill="none" xmlns="http://www.w3.org/2000/svg">
<path fill-rule="evenodd" clip-rule="evenodd" d="M0 0V47.9994H47.9994V0H0ZM23.9997 3.99995C33.9506 4.00495 42.2665 11.2949 43.7535 20.9277C43.9635 22.6407 42.9995 22.9997 41.9995 22.9997H6.00992C4.99934 22.9997 3.90345 22.9897 4.24995 21.0077C5.70253 11.3419 14.0278 4.01295 23.9997 3.99995ZM6.05492 24.9997H41.8745C42.9995 24.9997 44.1164 24.9957 43.7355 27.0797C42.2465 36.7025 33.9416 43.9864 23.9997 43.9995C14.0358 43.9944 5.71093 36.6845 4.23995 27.0327C4.02845 25.2897 5.00004 24.9997 6.05462 24.9997H6.05492Z" fill="#333333"/>
</svg>

<?xml version="1.0" encoding="UTF-8" standalone="no"?>
<!-- Created with Inkscape (http://www.inkscape.org/) -->
<svg id="svg8" xmlns:rdf="http://www.w3.org/1999/02/22-rdf-syntax-ns#" xmlns="http://www.w3.org/2000/svg" xmlns:osb="http://www.openswatchbook.org/uri/2009/osb" height="48" width="48" version="1.1" xmlns:cc="http://creativecommons.org/ns#" viewBox="0 0 12.7 12.7" xmlns:dc="http://purl.org/dc/elements/1.1/">
 <title id="title4753">UIO-icon</title>
 <metadata id="metadata5">
  <rdf:RDF>
   <cc:Work rdf:about="">
    <dc:format>image/svg+xml</dc:format>
    <dc:type rdf:resource="http://purl.org/dc/dcmitype/StillImage"/>
    <dc:title>UIO-icon</dc:title>
    <dc:creator>
     <cc:Agent>
      <dc:title>Joaquín Urbano</dc:title>
     </cc:Agent>
    </dc:creator>
    <dc:rights>
     <cc:Agent>
      <dc:title>GPL</dc:title>
     </cc:Agent>
    </dc:rights>
   </cc:Work>
  </rdf:RDF>
 </metadata>
 <g id="layer1" fill="#333" transform="translate(0,-284.3)">
  <path id="rect883" d="m0 0v48h48v-48h-48zm24 4c9.951 0.005 18.267 7.295 19.754 16.928 0.21 1.713-0.754 2.072-1.754 2.072h-35.99c-1.0106 0-2.1065-0.01-1.76-1.992 1.4526-9.666 9.778-16.995 19.75-17.008zm-17.945 21h35.82c1.125 0 2.242-0.004 1.861 2.08-1.489 9.623-9.794 16.907-19.736 16.92-9.964-0.005-18.289-7.315-19.76-16.967-0.2115-1.743 0.7601-2.033 1.8147-2.033z" fill-rule="evenodd" transform="matrix(.26458 0 0 .26458 0 284.3)"/>
 </g>
</svg>
